X:1
T:Solveig's Song
C:Edvard Grieg
O:Norway
S:Peer Gynt, Op.23
M:4/4
L:1/4
Q:1/4=72
K:Am
% A section — pickup + 10 bars
A | A A c A | E A F E | G E A2 | E3 A |
c c c B | A G F E | G A E2 | A3 A |
A A c A | E G A2 |]
